X:1

T:White Fryars Hornpipe

B:Walsh

M:4/4

L:1/8

K:G

B2|cBAG FGAF| GABG A2 D2| F2 D2 F2 A2-|

A2 B2 cBAG| FGAF GABG| ABcd B2 G2| G3::\

B2| cBcd e4 |g4 agfe| defd efge| a2 A2 A3 B|

cBcd e4| g4 agfe| defd ABcd|\B2 G2 G2:|

                                      

WHITE-HAIRED LASS, THE. AKA and see “Ships are Sailing [1].” Irish, Reel. E Minor. Standard tuning. AA’BB. Source for notated version: accordion player Johnny O’Leary (Sliabh Luachra region of the Cork-Kerry border) [Moylan]. Moylan (Johnny O’Leary), 1994; No. 328, pg. 187.

                       

WHITE-HAIRED PIPER, THE. AKA and see "The Belles of Tipperary [2]," "The Blea‑berry Blossom," "The Connacht Lasses," "The Dandy Girl/Lass/Lasses," "The Four Courts of Dublin, " "The Green Fields to America," "Jackson's Welcome to Cork [1]," "Johnny Shooting in the Glen," "The Kerry Star," "Miss Monaghan," "O'Connell in Clare," "Stormy Weather [1]," "The Barrow Castle," "Lamont's Reel."

           

WHITE HAVEN VOLUNTEER, THE. See “Whitehaven Volunteers.”

           

WHITE HEAD CABAGES.  AKA – “Easter Tuesday [2].” English, Jig. G Major. Standard tuning. The melody was printed by John Walsh in the Second Book of the Compleat Country Dancing Master (London, 1719), as “White Hard Cabages,” and again in Walsh’s 3rd edition of the same work (London, 1735 and 1749), under the corrected title “White Head Cabages.” It was also printed by John Young in his Dancing Master, vol. 2 of 1718 and 1728 (editions 3 and 4).

           

WHITE HEATHER [1]. Scottish, Strathspey. F Major. Standard tuning. AABB’. Kerr (Merry Melodies), vol. 4; No. 151, pg. 18.

